X: 30228
T: Old Jerry Doyle
R: jig
M: 6/8
K: Gmajor
g/e/|dBG G>AG|dcB Age|dBG G>AG|cAF ABc|
BAG G>AG|dBG Bdg|edc dcB|cAF G2:|
|:B/A/|G2 g gfg|dcB ABG|=F2=f fef|cA=F FGA|
Ggg gfg|efg de=f|edc dcB|cAF G2:|
|:B/A/|Ggg e2g|dcB AcA|=F=ff fef|cA=F FGA|
Ggg B2g|efg de=f|edc dcB|cAF G2:|

